dist/svgs/crypto-icons/icons/trx.svg

<?xml version="1.0" encoding="UTF-8" standalone="yes"?>
<svg xmlns="http://www.w3.org/2000/svg" xmlns:xlink="http://www.w3.org/1999/xlink" width="441.3333333333333px" height="510.66666666666663px" viewBox="0 0 331 383" version="1.1">
  <g id="surface1">
    <path style=" stroke:none;fill-rule:evenodd;fill:rgb(0%,0%,0%);fill-opacity:1;" d="M 324.804688 100.238281 C 309.234375 89.359375 292.601562 77.769531 276.320312 66.265625 C 274.375 64.761719 272.25 63.523438 269.949219 62.640625 L 269.773438 62.550781 C 226.242188 52.109375 182 41.316406 139.175781 30.878906 L 22.738281 2.566406 C 21.765625 2.210938 20.703125 1.945312 19.640625 1.679688 C 16.101562 0.707031 12.121094 -0.355469 7.785156 0.175781 C 6.636719 0.355469 5.484375 0.796875 4.425781 1.414062 L 3.363281 2.300781 C 2.035156 3.714844 0.972656 5.398438 0.265625 7.253906 L 0 7.960938 L 0 11.234375 L 0.175781 11.855469 C 24.773438 80.6875 49.992188 150.402344 74.234375 217.996094 C 92.902344 269.929688 112.367188 323.8125 131.304688 376.628906 C 132.628906 380.347656 136.082031 382.824219 139.972656 382.910156 L 140.859375 383 L 141.125 383 C 144.664062 383 148.027344 381.054688 149.796875 378.046875 L 221.109375 274.179688 L 273.132812 198.269531 C 280.300781 187.917969 287.378906 177.566406 294.457031 167.214844 C 306.136719 150.140625 318.257812 132.445312 330.203125 115.28125 L 330.824219 114.394531 L 330.824219 113.335938 C 331.089844 110.148438 331.175781 103.691406 325.867188 100.238281 Z M 242.433594 138.105469 C 225.710938 146.867188 208.632812 155.890625 191.46875 164.738281 L 221.464844 132.53125 C 234.027344 118.996094 247.035156 105.105469 259.773438 91.480469 L 260.039062 91.214844 C 261.277344 89.710938 262.515625 88.296875 263.933594 86.96875 C 264.90625 85.996094 265.96875 85.023438 267.03125 83.785156 C 273.664062 88.382812 280.390625 93.074219 286.847656 97.675781 C 291.539062 101.035156 296.316406 104.308594 301.183594 107.671875 C 281.363281 117.757812 261.632812 128.019531 242.433594 138.105469 Z M 160.058594 176.148438 C 134.398438 145.097656 108.210938 113.511719 82.90625 82.988281 L 48.308594 41.40625 C 45.566406 38.308594 43.089844 35.125 40.523438 32.027344 C 38.929688 29.992188 37.25 27.957031 35.480469 25.921875 C 45.921875 28.578125 56.449219 31.140625 66.800781 33.53125 C 75.914062 35.742188 85.292969 37.953125 94.585938 40.253906 L 251.191406 78.386719 C 232.699219 96.878906 215.269531 115.632812 198.371094 133.769531 C 181.617188 152.644531 168.847656 166.773438 160.058594 176.148438 Z M 156.078125 280.371094 C 156.875 272.761719 157.667969 264.886719 158.554688 257.457031 C 159.792969 245.511719 161.121094 233.039062 162.183594 220.917969 L 162.535156 218.792969 C 163.421875 211.007812 164.304688 203.046875 164.835938 194.996094 C 166.164062 194.464844 167.578125 193.757812 168.90625 193.046875 C 189.609375 182.167969 210.492188 171.371094 231.285156 160.488281 C 252.078125 149.695312 273.398438 138.550781 294.546875 127.488281 C 278.445312 153.855469 259.15625 181.988281 240.398438 209.414062 C 224.382812 232.859375 207.835938 257.101562 191.292969 280.902344 C 184.832031 290.457031 178.019531 300.1875 171.648438 309.480469 C 164.394531 319.917969 157.050781 330.625 149.882812 341.328125 C 150.769531 330.535156 151.828125 319.652344 152.980469 309.035156 C 154.128906 299.660156 155.191406 289.925781 156.078125 280.371094 Z M 24.15625 37.425781 C 48.398438 66.707031 72.90625 96.257812 96.707031 124.835938 C 109.007812 139.699219 121.394531 154.386719 133.691406 169.335938 C 136.167969 172.082031 138.648438 175.089844 140.859375 177.917969 C 143.957031 181.636719 147.050781 185.527344 150.324219 189.15625 C 149.265625 198.445312 148.378906 207.824219 147.40625 216.757812 C 146.699219 223.039062 146.167969 229.410156 145.371094 235.78125 C 145.105469 239.851562 144.574219 243.921875 144.132812 247.902344 C 143.511719 253.386719 142.097656 265.773438 142.097656 265.773438 C 140.417969 284.617188 138.382812 302.933594 136.523438 320.714844 C 135.726562 328.148438 135.019531 335.667969 134.222656 343.1875 C 133.78125 341.859375 133.25 340.53125 132.71875 339.292969 C 131.390625 335.667969 130.0625 331.863281 128.824219 328.234375 L 119.179688 301.515625 C 88.65625 216.671875 58.21875 131.914062 27.695312 47.15625 C 26.457031 43.882812 25.214844 40.609375 24.15625 37.425781 Z M 24.15625 37.425781 "/>
  </g>
</svg>

<svg xmlns="http://www.w3.org/2000/svg" viewBox="0 0 331 383"><path fill-rule="evenodd" d="M324.805 100.238c-15.57-10.879-32.203-22.468-48.485-33.972-1.945-1.504-4.07-2.743-6.37-3.625l-.177-.09C226.243 52.109 182 41.316 139.176 30.879L22.738 2.566c-.972-.355-2.035-.62-3.097-.886C16.1.707 12.12-.355 7.785.176c-1.148.18-2.3.62-3.36 1.238l-1.062.887A15.098 15.098 0 00.266 7.254L0 7.96v3.273l.176.621c24.597 68.832 49.816 138.547 74.058 206.141 18.668 51.934 38.133 105.816 57.07 158.633a9.422 9.422 0 008.669 6.281l.886.09h.266c3.54 0 6.902-1.945 8.672-4.953l71.312-103.867 52.024-75.91c7.168-10.352 14.246-20.704 21.324-31.055 11.68-17.074 23.8-34.77 35.746-51.934l.621-.886v-1.06c.266-3.187.352-9.644-4.957-13.097zm-82.371 37.867c-16.723 8.762-33.801 17.786-50.965 26.633l29.996-32.207c12.562-13.535 25.57-27.426 38.308-41.05l.266-.266c1.238-1.504 2.477-2.918 3.895-4.246.972-.973 2.035-1.946 3.097-3.184 6.633 4.598 13.36 9.29 19.817 13.89 4.691 3.36 9.468 6.634 14.336 9.997-19.82 10.086-39.551 20.348-58.75 30.433zm-82.375 38.043c-25.66-31.05-51.848-62.636-77.153-93.16L48.31 41.406c-2.743-3.097-5.22-6.281-7.786-9.379a154.24 154.24 0 00-5.043-6.105 1461.741 1461.741 0 0031.32 7.61c9.114 2.21 18.493 4.421 27.786 6.722L251.19 78.387c-18.492 18.492-35.921 37.246-52.82 55.383-16.754 18.875-29.523 33.003-38.312 42.378zm-3.98 104.223c.796-7.61 1.589-15.484 2.476-22.914 1.238-11.945 2.566-24.418 3.629-36.539l.351-2.125c.887-7.785 1.77-15.746 2.3-23.797 1.33-.531 2.743-1.238 4.071-1.95 20.703-10.878 41.586-21.675 62.38-32.558 20.792-10.793 42.112-21.937 63.26-33-16.1 26.367-35.39 54.5-54.148 81.926-16.015 23.445-32.562 47.688-49.105 71.488-6.461 9.555-13.273 19.286-19.645 28.578-7.253 10.438-14.597 21.145-21.765 31.848a1247.604 1247.604 0 013.097-32.293 991.328 991.328 0 003.098-28.664zM24.155 37.426a39312.731 39312.731 0 0072.551 87.41c12.3 14.863 24.688 29.55 36.984 44.5 2.477 2.746 4.957 5.754 7.168 8.582 3.098 3.719 6.192 7.61 9.465 11.238-1.058 9.29-1.945 18.668-2.918 27.602-.707 6.281-1.238 12.652-2.035 19.023-.266 4.07-.797 8.14-1.238 12.121-.621 5.485-2.035 17.871-2.035 17.871-1.68 18.844-3.715 37.16-5.575 54.942-.796 7.433-1.503 14.953-2.3 22.473a50.025 50.025 0 00-1.504-3.895 532.558 532.558 0 01-3.895-11.059l-9.644-26.718c-30.524-84.844-60.961-169.602-91.485-254.36-1.238-3.273-2.48-6.547-3.539-9.73zm0 0"/></svg>
